X:426
T: Biandange
N: C2044
O: China,Anhui Shouxian
S: III, 533]
R: Shange]
M: 2/4
L: 1/16
K: F
g8 | fdddcfdd | c2c2AcA2 | fdddcdcA | G8 |
DDDFG4 | A2cAGAGF | D8 |
D2F2D2D2 | f2dfdcAc | A6GG | AcF6 |
z8 | fdddcfdd | c2c2AcA2 | AfddcdcA | G8 |
DDDFG4 | A2cAGAGF | D8

@@@ Tune index: 6981
